src/img/img-price-3.svg

<svg width="233" height="171" viewBox="0 0 233 171" fill="none" xmlns="http://www.w3.org/2000/svg">
<g clip-path="url(#clip0)">
<path d="M232.091 63.3188H134.535V66.1805H232.091V63.3188Z" fill="#E6E6E6"/>
<path d="M167.314 39.3848H142.6V64.0991H167.314V39.3848Z" fill="#E6E6E6"/>
<path d="M162.371 44.3276H147.542V59.1562H162.371V44.3276Z" fill="#CCCCCC"/>
<path d="M204.255 39.3848H198.012V64.0991H204.255V39.3848Z" fill="#E6E6E6"/>
<path d="M204.255 43.2871H198.012V46.1488H204.255V43.2871Z" fill="#CCCCCC"/>
<path d="M204.255 55.7747H198.012V58.6363H204.255V55.7747Z" fill="#CCCCCC"/>
<path d="M194.63 39.3848H188.386V64.0991H194.63V39.3848Z" fill="#E6E6E6"/>
<path d="M194.63 43.2871H188.386V46.1488H194.63V43.2871Z" fill="#CCCCCC"/>
<path d="M194.63 55.7747H188.386V58.6363H194.63V55.7747Z" fill="#CCCCCC"/>
<path d="M209.635 39.283L204.039 42.0532L215.005 64.2017L220.6 61.4315L209.635 39.283Z" fill="#E6E6E6"/>
<path d="M211.366 42.7798L205.771 45.55L207.041 48.1146L212.636 45.3444L211.366 42.7798Z" fill="#CCCCCC"/>
<path d="M216.907 53.9707L211.312 56.741L212.581 59.3055L218.177 56.5353L216.907 53.9707Z" fill="#CCCCCC"/>
<path d="M151.835 49.3052L154.979 54.751L158.123 60.1969H151.835H145.547L148.691 54.751L151.835 49.3052Z" fill="#E6E6E6"/>
<path d="M157.298 50.3459L160.442 55.7918L163.587 61.2377H157.298H151.01L154.154 55.7918L157.298 50.3459Z" fill="#E6E6E6"/>
<path d="M159.509 48.7505C160.515 48.7505 161.33 47.9352 161.33 46.9295C161.33 45.9237 160.515 45.1084 159.509 45.1084C158.504 45.1084 157.688 45.9237 157.688 46.9295C157.688 47.9352 158.504 48.7505 159.509 48.7505Z" fill="#E6E6E6"/>
<path d="M134.535 26.8977L232.092 26.8977V24.036L134.535 24.036V26.8977Z" fill="#E6E6E6"/>
<path d="M199.312 24.8167L224.027 24.8167V0.10232L199.312 0.10232V24.8167Z" fill="#E6E6E6"/>
<path d="M204.255 19.8738L219.084 19.8738V5.04518L204.255 5.04518V19.8738Z" fill="#CCCCCC"/>
<path d="M162.371 24.8167H168.615V0.10232H162.371V24.8167Z" fill="#E6E6E6"/>
<path d="M162.371 6.86621L168.615 6.86621V4.00455L162.371 4.00455V6.86621Z" fill="#CCCCCC"/>
<path d="M162.371 19.3533H168.615V16.4916H162.371V19.3533Z" fill="#CCCCCC"/>
<path d="M171.997 24.8167H178.24V0.10232H171.997V24.8167Z" fill="#E6E6E6"/>
<path d="M171.997 6.86621L178.24 6.86621V4.00455L171.997 4.00455V6.86621Z" fill="#CCCCCC"/>
<path d="M171.997 19.3533H178.24V16.4916H171.997V19.3533Z" fill="#CCCCCC"/>
<path d="M146.026 22.1485L151.621 24.9187L162.587 2.77021L156.991 -2.23475e-05L146.026 22.1485Z" fill="#E6E6E6"/>
<path d="M153.99 6.06155L159.586 8.83179L160.855 6.26722L155.26 3.49699L153.99 6.06155Z" fill="#CCCCCC"/>
<path d="M148.45 17.2525L154.045 20.0227L155.315 17.4581L149.72 14.6879L148.45 17.2525Z" fill="#CCCCCC"/>
<path d="M214.791 10.0225L211.647 15.4683L208.503 20.9142H214.791H221.08L217.935 15.4683L214.791 10.0225Z" fill="#E6E6E6"/>
<path d="M209.328 11.063L206.184 16.5089L203.04 21.9547H209.328H215.617L212.473 16.5089L209.328 11.063Z" fill="#E6E6E6"/>
<path d="M207.117 9.46779C208.123 9.46779 208.938 8.65248 208.938 7.64674C208.938 6.641 208.123 5.82568 207.117 5.82568C206.111 5.82568 205.296 6.641 205.296 7.64674C205.296 8.65248 206.111 9.46779 207.117 9.46779Z" fill="#E6E6E6"/>
<path d="M134.535 105.463L232.092 105.463V102.601L134.535 102.601V105.463Z" fill="#E6E6E6"/>
<path d="M199.312 103.382H224.027V78.6677H199.312V103.382Z" fill="#E6E6E6"/>
<path d="M204.255 98.4392H219.084V83.6106H204.255V98.4392Z" fill="#CCCCCC"/>
<path d="M162.371 103.382H168.615V78.6677H162.371V103.382Z" fill="#E6E6E6"/>
<path d="M162.371 85.4316H168.615V82.57H162.371V85.4316Z" fill="#CCCCCC"/>
<path d="M162.371 97.9192H168.615V95.0575H162.371V97.9192Z" fill="#CCCCCC"/>
<path d="M171.997 103.382H178.24V78.6677H171.997V103.382Z" fill="#E6E6E6"/>
<path d="M171.997 85.4316H178.24V82.57H171.997V85.4316Z" fill="#CCCCCC"/>
<path d="M171.997 97.9192H178.24V95.0575H171.997V97.9192Z" fill="#CCCCCC"/>
<path d="M146.026 100.714L151.621 103.484L162.587 81.3359L156.991 78.5657L146.026 100.714Z" fill="#E6E6E6"/>
<path d="M153.99 84.6272L159.586 87.3975L160.855 84.8329L155.26 82.0627L153.99 84.6272Z" fill="#CCCCCC"/>
<path d="M148.45 95.8181L154.045 98.5884L155.315 96.0238L149.72 93.2536L148.45 95.8181Z" fill="#CCCCCC"/>
<path d="M214.791 88.5881L211.647 94.034L208.503 99.4801H214.791H221.08L217.935 94.034L214.791 88.5881Z" fill="#E6E6E6"/>
<path d="M209.328 89.6284L206.184 95.0743L203.04 100.52H209.328H215.617L212.473 95.0743L209.328 89.6284Z" fill="#E6E6E6"/>
<path d="M207.117 88.0332C208.123 88.0332 208.938 87.2179 208.938 86.2122C208.938 85.2064 208.123 84.3911 207.117 84.3911C206.111 84.3911 205.296 85.2064 205.296 86.2122C205.296 87.2179 206.111 88.0332 207.117 88.0332Z" fill="#E6E6E6"/>
<path d="M114.922 171C178.391 171 229.843 167.346 229.843 162.838C229.843 158.33 178.391 154.676 114.922 154.676C51.4522 154.676 0 158.33 0 162.838C0 167.346 51.4522 171 114.922 171Z" fill="#E6E6E6"/>
<path d="M204.704 167.409C185.965 164.073 165.474 164.628 143.979 167.409C153.776 159.138 162.231 150.867 152.434 142.596C171.545 146.538 174.221 146.139 195.48 142.596C190.549 150.867 199.774 159.138 204.704 167.409Z" fill="#3F3474"/>
<path opacity="0.2" d="M204.704 167.409C185.965 164.073 165.474 164.628 143.979 167.409C153.776 159.138 162.231 150.867 152.434 142.596C171.545 146.538 174.221 146.139 195.48 142.596C190.549 150.867 199.774 159.138 204.704 167.409Z" fill="black"/>
<path d="M200.134 163.88C184.216 161.218 166.809 161.66 148.549 163.88C156.872 157.278 164.054 150.676 155.732 144.074C171.966 147.221 174.239 146.903 192.298 144.074C188.109 150.676 195.945 157.278 200.134 163.88Z" fill="#3F3474"/>
<path d="M194.071 153.243C198.755 153.243 202.552 149.446 202.552 144.761C202.552 140.077 198.755 136.28 194.071 136.28C189.386 136.28 185.589 140.077 185.589 144.761C185.589 149.446 189.386 153.243 194.071 153.243Z" fill="#2F2E41"/>
<path d="M155.569 134.924L161.445 135.903L164.384 144.392L155.895 149.616L146.101 134.924H155.242H155.569Z" fill="#A0616A"/>
<path d="M172.219 147.983C179.792 147.983 185.932 141.844 185.932 134.271C185.932 126.698 179.792 120.558 172.219 120.558C164.646 120.558 158.507 126.698 158.507 134.271C158.507 141.844 164.646 147.983 172.219 147.983Z" fill="#A0616A"/>
<path d="M96.4755 84.3188C96.4755 84.3188 63.1744 87.9102 57.2977 87.2572C51.421 86.6042 48.8091 85.9513 48.8091 85.9513C48.8091 85.9513 44.8914 91.175 46.8502 93.4604C47.9473 94.7773 49.2749 95.8836 50.768 96.7252C50.768 96.7252 54.3593 95.7457 56.9712 96.7252C59.5831 97.7046 86.0281 101.949 90.5989 98.0311C95.1696 94.1133 96.4755 84.3188 96.4755 84.3188Z" fill="#2F2E41"/>
<path d="M98.7609 157.124C98.7609 157.124 76.8866 150.921 72.9688 123.497V120.885C72.9688 120.885 68.6408 128.478 67.0921 130.026C65.2965 131.822 58.9301 147.983 59.2566 149.615C59.583 151.248 59.2566 151.901 59.2566 151.901L49.7886 150.921V147.983C49.7886 147.983 54.8491 132.802 55.1755 129.21C55.502 125.619 67.7451 100.643 67.7451 100.643C67.7451 100.643 72.3158 91.1751 80.1514 100.643C87.987 110.111 88.64 116.641 88.64 116.641L98.7609 136.23L98.7609 157.124Z" fill="#2F2E41"/>
<path d="M49.7885 84.9718L39.3411 81.3805C39.3411 81.3805 29.5466 74.1979 31.832 81.3805C34.1174 88.5631 44.5648 104.234 47.5032 102.602C50.4415 100.969 53.9753 96.9175 53.1878 96.3316C52.4004 95.7457 47.1767 91.5015 49.7885 84.9718Z" fill="#2F2E41"/>
<path d="M51.0514 146.056L42.6177 150.174C42.6177 150.174 32.4189 151.743 38.1067 154.685C43.7945 157.627 59.485 160.766 60.2696 158.02C61.0541 155.274 60.7428 150.717 59.9178 150.838C59.0928 150.959 53.4049 151.547 51.0514 146.056Z" fill="#2F2E41"/>
<path d="M94.5166 135.577C94.5166 135.577 90.2724 153.86 97.455 157.777C104.638 161.695 154.916 162.348 158.834 155.166C162.751 147.983 160.793 147.983 160.793 147.983L150.345 136.23L158.834 135.577C158.834 135.577 158.834 132.965 155.895 132.638C152.957 132.312 143.815 129.047 135.98 131.332C128.144 133.618 123.574 126.762 123.574 126.762L94.5166 135.577Z" fill="#575A89"/>
<path d="M88.9665 78.4422L83.4161 108.805L121.615 104.234L128.471 76.8098L88.9665 78.4422Z" fill="#3F3D56"/>
<path d="M90.1092 79.585L85.5385 106.683L120.309 102.602L127.002 77.9526L90.1092 79.585Z" fill="white"/>
<path d="M84.722 109.132L83.416 108.805L82.7632 110.111L93.2107 139.168L94.1932 138.793L94.5164 136.883L84.722 109.132Z" fill="#B3B3B3"/>
<path d="M83.4161 108.478L93.8637 138.841L133.368 132.965L121.615 104.234L83.4161 108.478Z" fill="#D0CDE1"/>
<path d="M88.64 107.499V109.132L117.697 105.867L117.37 104.234L88.64 107.499Z" fill="#3F3D56"/>
<path d="M89.293 110.764L93.8637 123.497L123.574 119.906L118.35 107.826L89.293 110.764Z" fill="#3F3D56"/>
<path d="M126.512 128.721L125.532 126.109C125.532 126.109 118.023 113.049 114.105 115.661C110.188 118.273 122.268 131.006 122.268 131.006H126.185L126.512 128.721Z" fill="#A0616A"/>
<path d="M101.699 130.68L100.72 126.762C100.72 126.762 98.1079 114.682 102.679 115.335C107.249 115.988 108.555 127.415 108.555 127.415L108.229 130.027L101.699 130.68Z" fill="#A0616A"/>
<path d="M109.535 129.047C109.535 129.047 101.046 127.741 100.72 129.7C100.393 131.659 98.761 161.042 106.923 162.021C115.085 163.001 155.569 167.245 151.325 157.124C147.08 147.003 140.551 148.309 140.551 148.309L112.8 151.248L109.535 129.047Z" fill="#575A89"/>
<path d="M135.164 132.802L126.512 126.762L120.798 131.169L127.981 139.005L135.164 132.802Z" fill="#575A89"/>
<path opacity="0.2" d="M111.984 138.678L113.289 151.085L135.817 149.779L116.228 149.452L111.984 138.678Z" fill="black"/>
<path d="M178.988 153.086C188.004 153.086 195.312 145.778 195.312 136.762C195.312 127.747 188.004 120.438 178.988 120.438C169.973 120.438 162.664 127.747 162.664 136.762C162.664 145.778 169.973 153.086 178.988 153.086Z" fill="#2F2E41"/>
<path d="M95.0065 89.0531L115.248 88.3485L117.207 80.8911L96.3124 81.5217L95.0065 89.0531Z" fill="#3F3474"/>
<path d="M89.7827 93.2975L120.472 92.3179L120.798 91.012L90.1091 92.0925L89.7827 93.2975Z" fill="#E6E6E6"/>
<path d="M89.1298 96.5621L119.819 95.5826L120.146 94.2766L89.4562 95.3572L89.1298 96.5621Z" fill="#E6E6E6"/>
<path d="M88.8031 99.1737L119.492 98.1944L119.819 96.8884L89.1295 97.9687L88.8031 99.1737Z" fill="#E6E6E6"/>
</g>
<defs>
<clipPath id="clip0">
<rect width="232.091" height="171" fill="white"/>
</clipPath>
</defs>
</svg>

<svg xmlns="http://www.w3.org/2000/svg" xmlns:xlink="http://www.w3.org/1999/xlink" width="233" height="171" fill="none" xmlns:v="https://vecta.io/nano"><style><![CDATA[.B{fill:#e6e6e6}.C{fill:#ccc}.D{fill:#3f3474}.E{fill:#2f2e41}]]></style><g clip-path="url(#A)"><g class="B"><path d="M232.091 63.319h-97.556v2.862h97.556v-2.862z"/><path d="M167.314 39.385H142.6v24.714h24.714V39.385z"/></g><path d="M162.371 44.328h-14.829v14.829h14.829V44.328z" class="C"/><path d="M204.255 39.385h-6.243v24.714h6.243V39.385z" class="B"/><g class="C"><path d="M204.255 43.287h-6.243v2.862h6.243v-2.862zm0 12.488h-6.243v2.862h6.243v-2.862z"/></g><path d="M194.63 39.385h-6.244v24.714h6.244V39.385z" class="B"/><g class="C"><path d="M194.63 43.287h-6.244v2.862h6.244v-2.862zm0 12.488h-6.244v2.862h6.244v-2.862z"/></g><path d="M209.635 39.283l-5.596 2.77 10.966 22.149 5.595-2.77-10.965-22.148z" class="B"/><g class="C"><path d="M211.366 42.78l-5.595 2.77 1.27 2.565 5.595-2.77-1.27-2.565zm5.541 11.191l-5.595 2.77 1.269 2.565 5.596-2.77-1.27-2.565z"/></g><g class="B"><path d="M151.835 49.305l6.288 10.892h-12.576l6.288-10.892z"/><path d="M157.298 50.346l6.289 10.892H151.01l6.288-10.892zm2.211-1.595a1.821 1.821 0 1 0 0-3.642 1.821 1.821 0 1 0 0 3.642zm-24.974-21.853h97.557v-2.862h-97.557v2.862z"/><path d="M199.312 24.817h24.715V.102h-24.715v24.714z"/></g><path d="M204.255 19.874h14.829V5.045h-14.829v14.829z" class="C"/><path d="M162.371 24.817h6.244V.102h-6.244v24.714z" class="B"/><g class="C"><path d="M162.371 6.866h6.244V4.005h-6.244v2.862zm0 12.487h6.244v-2.862h-6.244v2.862z"/></g><path d="M171.997 24.817h6.243V.102h-6.243v24.714z" class="B"/><g class="C"><path d="M171.997 6.866h6.243V4.005h-6.243v2.862zm0 12.487h6.243v-2.862h-6.243v2.862z"/></g><path d="M146.026 22.149l5.595 2.77L162.587 2.77 156.991 0l-10.965 22.149z" class="B"/><g class="C"><path d="M153.99 6.062l5.596 2.77 1.269-2.565-5.595-2.77-1.27 2.565zm-5.54 11.191l5.595 2.77 1.27-2.565-5.595-2.77-1.27 2.565z"/></g><g class="B"><path d="M214.791 10.023l-6.288 10.892h12.577l-3.145-5.446-3.144-5.446z"/><path d="M209.328 11.063l-6.288 10.892h12.577l-6.289-10.892zm-2.211-1.595a1.821 1.821 0 0 0 0-3.642 1.821 1.821 0 0 0 0 3.642zm-72.582 95.995h97.557v-2.862h-97.557v2.862z"/><path d="M199.312 103.382h24.715V78.668h-24.715v24.714z"/></g><path d="M204.255 98.439h14.829V83.611h-14.829v14.829z" class="C"/><path d="M162.371 103.382h6.244V78.668h-6.244v24.714z" class="B"/><g class="C"><path d="M162.371 85.432h6.244V82.57h-6.244v2.862zm0 12.487h6.244v-2.862h-6.244v2.862z"/></g><path d="M171.997 103.382h6.243V78.668h-6.243v24.714z" class="B"/><g class="C"><path d="M171.997 85.432h6.243V82.57h-6.243v2.862zm0 12.487h6.243v-2.862h-6.243v2.862z"/></g><path d="M146.026 100.714l5.595 2.77 10.966-22.148-5.596-2.77-10.965 22.148z" class="B"/><g class="C"><path d="M153.99 84.627l5.596 2.77 1.269-2.565-5.595-2.77-1.27 2.564zm-5.54 11.191l5.595 2.77 1.27-2.565-5.595-2.77-1.27 2.564z"/></g><g class="B"><path d="M214.791 88.588l-6.288 10.892h12.577l-6.289-10.892z"/><path d="M209.328 89.628l-6.288 10.892h12.577l-6.289-10.892zm-2.211-1.595a1.821 1.821 0 1 0 0-3.642 1.821 1.821 0 1 0 0 3.642zM114.922 171c63.469 0 114.921-3.654 114.921-8.162s-51.452-8.162-114.921-8.162S0 158.33 0 162.838 51.452 171 114.922 171z"/></g><use xlink:href="#B" class="D"/><use xlink:href="#B" opacity=".2" fill="#000"/><path d="M200.134 163.88c-15.918-2.662-33.325-2.22-51.585 0 8.323-6.602 15.505-13.204 7.183-19.806 16.234 3.147 18.507 2.829 36.566 0-4.189 6.602 3.647 13.204 7.836 19.806z" class="D"/><path d="M194.071 153.243c4.684 0 8.481-3.797 8.481-8.482s-3.797-8.481-8.481-8.481-8.482 3.797-8.482 8.481 3.797 8.482 8.482 8.482z" class="E"/><g fill="#a0616a"><path d="M155.569 134.924l5.876.979 2.939 8.489-8.489 5.224-9.794-14.692h9.468z"/><path d="M172.219 147.983c7.573 0 13.713-6.139 13.713-13.712s-6.14-13.713-13.713-13.713-13.712 6.14-13.712 13.713 6.139 13.712 13.712 13.712z"/></g><g class="E"><path d="M96.476 84.319s-33.301 3.591-39.178 2.938-8.489-1.306-8.489-1.306-3.918 5.224-1.959 7.509a14.13 14.13 0 0 0 3.918 3.265s3.591-.98 6.203 0 29.057 5.224 33.628 1.306 5.877-13.712 5.877-13.712z"/><path d="M98.761 157.124s-21.874-6.203-25.792-33.627v-2.612s-4.328 7.593-5.877 9.141c-1.796 1.796-8.162 17.957-7.836 19.589s0 2.286 0 2.286l-9.468-.98v-2.938s5.06-15.181 5.387-18.773 12.57-28.567 12.57-28.567 4.571-9.468 12.406 0 8.489 15.998 8.489 15.998l10.121 19.589v20.894zM49.789 84.972l-10.447-3.591s-9.794-7.183-7.509 0 12.733 22.853 15.671 21.222 6.472-5.684 5.685-6.27-6.011-4.83-3.399-11.36z"/><path d="M51.051 146.056l-8.434 4.118s-10.199 1.569-4.511 4.511 21.378 6.081 22.163 3.335.473-7.303-.352-7.182-6.513.709-8.866-4.782z"/></g><path d="M94.517 135.577s-4.244 18.283 2.938 22.2 57.461 4.571 61.379-2.611 1.959-7.183 1.959-7.183l-10.448-11.753 8.489-.653s0-2.612-2.939-2.939-12.08-3.591-19.915-1.306-12.406-4.57-12.406-4.57l-29.057 8.815z" fill="#575a89"/><path d="M88.967 78.442l-5.55 30.363 38.199-4.571 6.856-27.424-39.505 1.632z" fill="#3f3d56"/><path d="M90.109 79.585l-4.571 27.098 34.771-4.081 6.693-24.649-36.893 1.632z" fill="#fff"/><path d="M84.722 109.132l-1.306-.327-.653 1.306 10.448 29.057.983-.375.323-1.91-9.794-27.751z" fill="#b3b3b3"/><path d="M83.416 108.478l10.448 30.363 39.504-5.876-11.753-28.731-38.199 4.244z" fill="#d0cde1"/><g fill="#3f3d56"><path d="M88.64 107.499v1.633l29.057-3.265-.327-1.633-28.73 3.265zm.653 3.265l4.571 12.733 29.71-3.591-5.224-12.08-29.057 2.938z"/></g><g fill="#a0616a"><path d="M126.512 128.721l-.98-2.612s-7.509-13.06-11.427-10.448 8.163 15.345 8.163 15.345h3.917l.327-2.285zm-24.813 1.959l-.979-3.918s-2.612-12.08 1.959-11.427 5.876 12.08 5.876 12.08l-.326 2.612-6.53.653z"/></g><g fill="#575a89"><path d="M109.535 129.047s-8.489-1.306-8.815.653-1.959 31.342 6.203 32.321 48.646 5.224 44.402-4.897-10.774-8.815-10.774-8.815l-27.751 2.939-3.265-22.201zm25.629 3.755l-8.652-6.04-5.714 4.407 7.183 7.836 7.183-6.203z"/></g><path opacity=".2" d="M111.984 138.678l1.305 12.407 22.528-1.306-19.589-.327-4.244-10.774z" fill="#000"/><path d="M178.988 153.086c9.016 0 16.324-7.308 16.324-16.324s-7.308-16.324-16.324-16.324-16.324 7.309-16.324 16.324 7.309 16.324 16.324 16.324z" class="E"/><path d="M95.007 89.053l20.242-.705 1.959-7.457-20.895.631-1.306 7.531z" class="D"/><g class="B"><path d="M89.783 93.298l30.689-.98.326-1.306-30.689 1.081-.326 1.205zm-.653 3.264l30.689-.98.327-1.306-30.69 1.081-.326 1.205zm-.327 2.612l30.689-.979.327-1.306-30.69 1.08-.326 1.205z"/></g></g><defs><clipPath id="A"><path fill="#fff" d="M0 0h232.091v171H0z"/></clipPath><path id="B" d="M204.704 167.409c-18.739-3.336-39.23-2.781-60.725 0 9.797-8.271 18.252-16.542 8.455-24.813 19.111 3.942 21.787 3.543 43.046 0-4.931 8.271 4.294 16.542 9.224 24.813z"/></defs></svg>
